X: 33587
T: Rakes Of Mallow, The
R: polka
M: 2/4
K: Gmajor
GB GB|GB c/B/A/G/|FA FA|FA d/c/B/A/|
GB GB|GB d>B|c/B/A/G/ F/G/A/c/|BG G:|
gf/e/ dc|Bc d2|gf/e/ dB|ce A2|
gf/e/ dc|B>c dB|c/B/A/G/ F/G/A/c/|BG G:|
GB GB/B/|G>B c/B/A/G/|FA F/G/A/G/|FA D2|
G>B GB/B/|G/A/B/c/ d>B|cA F/A/d/c/|BG G:|
gf/e/ d>c|Bc dB/d/|gf/e/ dc|Bd Ad|
gf/e/ d2|B>c d2|cA F/A/d/c/|BG G:|

